X:1
T:Straub, 87.87 D
T:Arranged from Carl Maria von Weber (1786-1826)
T:Straub, 87.87 D
T:Public Domain
C:Arranged from Carl Maria von Weber (1786-1826)
Z:Public Domain
%%score ( 1 2 ) 3
L:1/8
M:3/4
K:D
V:1 treble 
V:2 treble 
V:3 bass 
V:1
 [FA]2 [FA]([FA] [DF])[GB] | [FA]2 [FA]([FA] [DF])[Fd] | [Ec]2 [Ec]([Ec] [DB])[Ec] | %3
 [Fd]2 ([Ac]/[GB]/) [FA]3 | [FA]2 [FA][FA] [DF][GB] | [FA]2 [FA]([FA] [DF])[Fd] | %6
 [Ec]2 [Ec]([Ec] [DB])[Ec] | [Fd]2 [Fd] [Fd]3 | [Gd]2 [Gd](d c)[GB] | [FA]2 [FA]([FA] [EG])[DF] | %10
 [CE]2 [CE]([CE] [DF])[EG] | [DF]2 [EG] [FA]3 | [Gd]2 [Gd](d c)[GB] | [FA]2 [FA]([FA] [EG])[DF] | %14
 [CE]2 [CE](E D)[CE] | [DF]3 [CE]3 | D6 |] %17
V:2
 x6 | x6 | x6 | x6 | x6 | x6 | x6 | x6 | x3 G2 x | x6 | x6 | x6 | x3 G2 x | x6 | x3 C2 x | x6 | %16
 D6 |] %17
V:3
 D,2 D, D,2 D, | D,2 D, D,2 D, | A,,2 A,, A,,2 A,, | D,2 D, D,3 | D,2 D, D,2 D, | D,2 D, D,2 D, | %6
 A,,2 A,, A,,2 A,, | D,2 D, D,3 | [G,B,]2 [G,B,] [G,D]2 [D,D] | [D,D]2 [D,D] [D,D]2 [D,A,] | %10
 [A,,A,]2 [A,,A,] [A,,A,]2 [A,,A,] | [D,A,]2 [D,D] [D,D]3 | [G,B,]2 [G,B,] [G,B,]2 [G,D] | %13
 [D,D]2 [D,D] [D,D]2 [D,A,] | [A,,A,]2 [A,,A,] [A,,A,]2 [A,,A,] | [A,,A,]3 [A,,G,]3 | [D,F,]6 |] %17

